build/assets/images/content/service_master.svg

<svg width="41" height="40" viewBox="0 0 41 40" fill="none" xmlns="http://www.w3.org/2000/svg">
<g clip-path="url(#clip0_27_5249)">
<g filter="url(#filter0_b_27_5249)">
<rect x="0.666992" width="40" height="40" rx="12" fill="url(#paint0_radial_27_5249)" fill-opacity="0.3"/>
<rect x="1.66699" y="1" width="38" height="38" rx="11" stroke="url(#paint1_linear_27_5249)" stroke-width="2"/>
</g>
<path fill-rule="evenodd" clip-rule="evenodd" d="M19.6971 6.02912L19.1163 6.14798C19.1163 6.14798 19.0776 6.14798 19.0776 6.1876C18.9227 6.30645 18.8453 6.26684 18.6904 6.38569C18.4581 6.50455 18.1483 6.70264 17.9934 6.86112L17.6837 7.13845C17.6062 7.29692 17.3739 7.49502 17.1029 8.04968C16.6382 9.11939 16.7544 10.3872 17.4126 11.338L17.5288 11.5361C17.5675 11.5758 17.5675 11.5361 17.6062 11.6154C17.6449 11.6946 17.6062 11.6154 17.6449 11.6946C17.7224 11.6946 17.7224 11.7342 17.7998 11.8135C17.8386 11.8531 17.8773 11.8927 17.9547 11.9719C18.3032 12.3285 18.9615 12.5662 19.0389 12.6455C19.1551 12.6455 19.8908 12.8436 19.9295 12.8436L20.549 12.8039C20.8201 12.7643 21.0524 12.6851 21.3234 12.6455C21.4783 12.487 22.1366 12.4078 22.8723 11.4569C22.9497 11.338 23.1433 10.9815 23.2207 10.9022C23.2982 10.6249 23.4143 10.3476 23.4918 9.991C23.5305 9.63443 23.5692 9.27786 23.4918 8.9213C23.3369 7.81197 22.6012 6.78188 21.5945 6.30645C21.0137 6.02912 20.4328 5.94988 19.6971 6.02912ZM18.3806 14.2302L17.5675 14.5868H17.5288C17.4901 14.6264 17.5288 14.6264 17.4513 14.666L16.8318 15.2207C16.7931 15.2999 16.7156 15.3395 16.6382 15.4188C16.5608 15.498 16.522 15.5376 16.4446 15.6169L12.1466 19.6976C11.5271 20.3315 11.0237 20.49 10.8688 21.4012C10.8301 22.3917 11.4883 23.1048 12.4564 23.0256C12.8436 22.986 13.1146 22.7879 13.3082 22.5898C13.4631 22.4313 13.5018 22.3917 13.6567 22.2728L15.3217 20.7277C15.4379 20.5692 15.6315 20.4504 15.7863 20.2919C15.9412 20.1334 16.0187 20.0542 16.2123 19.8957C16.251 20.2523 16.2123 23.3029 16.2123 23.8972C16.2123 24.4915 16.1348 25.165 16.0961 25.7989C16.0574 26.1159 16.0187 27.4629 15.9412 27.6214C15.98 27.7798 15.9412 28.0572 15.9412 28.2553C15.9412 28.5326 15.9412 29.1665 15.8251 29.325C15.8638 29.4835 15.8251 29.6419 15.8251 29.8004L15.7089 30.8701C15.7476 30.989 15.7476 31.0286 15.7089 31.1474C15.6702 31.7813 15.554 32.4945 15.8251 33.0491C15.9412 33.3265 16.0961 33.4453 16.2897 33.6038C16.4833 33.7623 16.8318 33.8811 16.9093 33.9604L17.4901 34C17.6062 33.9208 17.7998 33.9208 17.9547 33.8415C18.1096 33.7623 18.187 33.6831 18.3419 33.6038H18.3806L18.613 33.2869C19.2325 32.4549 18.884 30.7909 19.1163 30.3551C19.0776 30.1966 19.1163 29.9589 19.1163 29.8004C19.1163 29.5627 19.1551 28.7307 19.2325 28.6118V28.4137L19.2712 27.5421L19.3487 26.4724C19.6971 26.4724 20.7426 26.4328 21.0137 26.512L21.0911 27.5421L21.1298 28.3345V28.6118C21.2073 28.7307 21.2073 29.6023 21.246 29.84C21.246 29.9985 21.2847 30.1966 21.246 30.3551C21.3234 30.5135 21.3621 31.9002 21.4009 32.2172C21.4396 32.7718 21.517 33.0888 21.9042 33.485C21.9817 33.5642 21.943 33.5246 22.0204 33.6038H22.0591C22.214 33.6831 22.2914 33.7623 22.4463 33.8415C22.5625 33.8811 22.7948 33.9208 22.911 34L23.5305 33.9604C23.6854 33.8415 23.9564 33.8019 24.15 33.6038C24.3049 33.4453 24.4598 33.3265 24.576 33.0491C24.8083 32.5737 24.7309 31.9398 24.6921 31.3455L24.4985 28.2553C24.4598 28.0968 24.4211 27.7798 24.4985 27.5818V27.5421L24.4598 27.1459C24.4598 26.9875 24.4211 26.829 24.4211 26.6705C24.3824 26.4724 24.3824 26.2347 24.3824 26.0366C24.3049 25.8781 24.3049 25.4423 24.3049 25.2046V24.9669C24.1888 24.7688 24.15 20.3711 24.2275 19.8957C24.3049 19.9353 24.2662 19.8957 24.3049 19.9749C24.4211 20.0146 25.0019 20.6088 25.0019 20.6088C25.0793 20.6485 25.0406 20.6088 25.0793 20.7277C25.3117 20.8069 25.544 21.1635 25.7763 21.322L26.7831 22.2728C27.1703 22.6294 27.209 22.8275 27.9447 22.986C28.9127 23.0256 29.5709 22.3521 29.5322 21.3616L29.4935 21.005L29.2612 20.6485L27.48 18.9449C27.3639 18.826 26.9767 18.4694 26.8992 18.3506C26.8218 18.311 26.8605 18.3506 26.7831 18.2713L24.4598 16.0923C24.3049 15.9734 24.1888 15.815 24.0726 15.6961C23.9564 15.5773 23.8016 15.4188 23.6854 15.3395C23.6467 15.2999 23.6079 15.2999 23.6079 15.2603C23.5305 15.1811 23.5692 15.2207 23.5692 15.1811L22.8723 14.5472L22.8335 14.5075L22.0978 14.1906C22.0204 14.151 22.0591 14.1906 22.0204 14.151C21.8655 14.151 21.4009 14.0717 21.1298 14.0717H19.2325C19.0002 14.0717 18.5355 14.151 18.3806 14.151V14.2302Z" fill="#D42515"/>
</g>
<defs>
<filter id="filter0_b_27_5249" x="-30.9419" y="-31.6089" width="103.218" height="103.218" filterUnits="userSpaceOnUse" color-interpolation-filters="sRGB">
<feFlood flood-opacity="0" result="BackgroundImageFix"/>
<feGaussianBlur in="BackgroundImage" stdDeviation="15.8045"/>
<feComposite in2="SourceAlpha" operator="in" result="effect1_backgroundBlur_27_5249"/>
<feBlend mode="normal" in="SourceGraphic" in2="effect1_backgroundBlur_27_5249" result="shape"/>
</filter>
<radialGradient id="paint0_radial_27_5249" cx="0" cy="0" r="1" gradientUnits="userSpaceOnUse" gradientTransform="translate(39.4388 18.4936) rotate(175.111) scale(54.5563 43.5884)">
<stop stop-color="#D42515"/>
<stop offset="1" stop-color="#FF9F96" stop-opacity="0"/>
</radialGradient>
<linearGradient id="paint1_linear_27_5249" x1="-8.30676" y1="-9.40531" x2="20.409" y2="13.9711" gradientUnits="userSpaceOnUse">
<stop stop-color="#FF3C3C"/>
<stop offset="1" stop-color="#FF3131" stop-opacity="0"/>
</linearGradient>
<clipPath id="clip0_27_5249">
<rect width="40" height="40" fill="white" transform="translate(0.666992)"/>
</clipPath>
</defs>
</svg>

<svg width="41" height="40" fill="none" xmlns="http://www.w3.org/2000/svg"><g clip-path="url(#clip0_27_5249)"><g filter="url(#filter0_b_27_5249)"><rect x=".667" width="40" height="40" rx="12" fill="url(#paint0_radial_27_5249)" fill-opacity=".3"/><rect x="1.667" y="1" width="38" height="38" rx="11" stroke="url(#paint1_linear_27_5249)" stroke-width="2"/></g><path fill-rule="evenodd" clip-rule="evenodd" d="M19.697 6.03l-.58.118s-.04 0-.04.04c-.154.118-.232.079-.387.198-.232.119-.542.317-.697.475l-.31.277c-.077.159-.31.357-.58.912a3.432 3.432 0 00.31 3.288l.116.198c.038.04.038 0 .077.08l.039.079c.077 0 .077.04.155.118l.155.159c.348.357 1.007.594 1.084.674.116 0 .852.198.89.198l.62-.04c.271-.04.503-.119.774-.159.155-.158.814-.237 1.55-1.188.077-.119.27-.476.348-.555.077-.277.193-.554.27-.911.04-.357.078-.713 0-1.07-.154-1.109-.89-2.14-1.896-2.615-.581-.277-1.162-.356-1.898-.277zm-1.316 8.2l-.814.357h-.038c-.039.04 0 .04-.078.079l-.62.555c-.038.079-.115.118-.193.198l-.193.198-4.298 4.08c-.62.634-1.123.793-1.278 1.704-.039.99.62 1.704 1.587 1.625.388-.04.659-.238.852-.436.155-.159.194-.198.349-.317l1.665-1.545c.116-.159.31-.278.464-.436a4.28 4.28 0 01.426-.396c.039.356 0 3.407 0 4.001 0 .595-.077 1.268-.116 1.902-.039.317-.077 1.664-.155 1.822.039.159 0 .436 0 .634 0 .278 0 .912-.116 1.07.039.159 0 .317 0 .475l-.116 1.07a.346.346 0 010 .277c-.039.634-.155 1.348.116 1.902.116.278.271.396.465.555.193.158.542.277.62.356l.58.04c.116-.08.31-.08.465-.158.155-.08.232-.159.387-.238h.039l.232-.317c.62-.832.271-2.496.503-2.932-.038-.158 0-.396 0-.555 0-.237.04-1.07.117-1.188v-.198l.038-.872.078-1.07c.348 0 1.394-.04 1.665.04l.077 1.03.039.792v.278c.077.119.077.99.116 1.228 0 .159.039.357 0 .515.077.159.116 1.545.155 1.862.039.555.116.872.503 1.268l.116.119h.04c.154.08.231.158.386.238.116.04.349.079.465.158l.62-.04c.154-.118.425-.158.619-.356.155-.159.31-.277.426-.555.232-.475.155-1.11.116-1.703l-.194-3.09c-.038-.16-.077-.476 0-.674v-.04l-.038-.396c0-.159-.039-.317-.039-.476-.039-.198-.039-.435-.039-.633-.077-.159-.077-.595-.077-.832v-.238c-.116-.198-.155-4.596-.078-5.071.078.04.04 0 .078.079.116.04.697.634.697.634.077.04.039 0 .077.119.233.079.465.435.697.594l1.007.95c.387.357.426.556 1.162.714.968.04 1.626-.634 1.587-1.624l-.038-.357-.233-.357-1.781-1.703c-.116-.119-.503-.476-.58-.594-.078-.04-.04 0-.117-.08l-2.323-2.179c-.155-.119-.271-.277-.387-.396-.117-.119-.271-.277-.388-.357-.038-.04-.077-.04-.077-.079-.078-.079-.039-.04-.039-.079l-.697-.634-.038-.04-.736-.316c-.078-.04-.039 0-.078-.04-.154 0-.62-.08-.89-.08h-1.897c-.233 0-.698.08-.852.08v.08z" fill="#D42515"/></g><defs><radialGradient id="paint0_radial_27_5249" cx="0" cy="0" r="1" gradientUnits="userSpaceOnUse" gradientTransform="rotate(175.111 19.325 10.089) scale(54.5563 43.5884)"><stop stop-color="#D42515"/><stop offset="1" stop-color="#FF9F96" stop-opacity="0"/></radialGradient><linearGradient id="paint1_linear_27_5249" x1="-8.307" y1="-9.405" x2="20.409" y2="13.971" gradientUnits="userSpaceOnUse"><stop stop-color="#FF3C3C"/><stop offset="1" stop-color="#FF3131" stop-opacity="0"/></linearGradient><clipPath id="clip0_27_5249"><path fill="#fff" transform="translate(.667)" d="M0 0h40v40H0z"/></clipPath><filter id="filter0_b_27_5249" x="-30.942" y="-31.609" width="103.218" height="103.218" filterUnits="userSpaceOnUse" color-interpolation-filters="sRGB"><feFlood flood-opacity="0" result="BackgroundImageFix"/><feGaussianBlur in="BackgroundImage" stdDeviation="15.805"/><feComposite in2="SourceAlpha" operator="in" result="effect1_backgroundBlur_27_5249"/><feBlend in="SourceGraphic" in2="effect1_backgroundBlur_27_5249" result="shape"/></filter></defs></svg>
